X:123
T:Meentogues Lad, The
R:slide
Z:id:hn-slide-123
M:6/8
L:1/8
K:Amix
A2c e2c | d2f a2f | e2c A2c | B2c dcB |
A2c e2c | d2f a2f | efe dcB | A3 A3 :|
|: a3 a2f | g3 gfe | d2f a2f | e3 e2c |
A2c e2c | d2f a2f | efe dcB | A3 A3 :|

